aide.svg

<?xml version="1.0" encoding="UTF-8" standalone="no"?>
<svg
   xmlns:dc="http://purl.org/dc/elements/1.1/"
   xmlns:cc="http://creativecommons.org/ns#"
   xmlns:rdf="http://www.w3.org/1999/02/22-rdf-syntax-ns#"
   xmlns:svg="http://www.w3.org/2000/svg"
   xmlns="http://www.w3.org/2000/svg"
   xmlns:sodipodi="http://sodipodi.sourceforge.net/DTD/sodipodi-0.dtd"
   xmlns:inkscape="http://www.inkscape.org/namespaces/inkscape"
   width="24px"
   height="24px"
   viewBox="0 0 24 24"
   version="1.1"
   id="svg9"
   sodipodi:docname="aide.svg"
   inkscape:version="0.92.3 (2405546, 2018-03-11)">
  <metadata
     id="metadata13">
    <rdf:RDF>
      <cc:Work
         rdf:about="">
        <dc:format>image/svg+xml</dc:format>
        <dc:type
           rdf:resource="http://purl.org/dc/dcmitype/StillImage" />
      </cc:Work>
    </rdf:RDF>
  </metadata>
  <sodipodi:namedview
     pagecolor="#ffffff"
     bordercolor="#666666"
     borderopacity="1"
     objecttolerance="10"
     gridtolerance="10"
     guidetolerance="10"
     inkscape:pageopacity="0"
     inkscape:pageshadow="2"
     inkscape:window-width="1920"
     inkscape:window-height="1001"
     id="namedview11"
     showgrid="false"
     inkscape:zoom="32"
     inkscape:cx="10.795259"
     inkscape:cy="11.972167"
     inkscape:window-x="0"
     inkscape:window-y="0"
     inkscape:window-maximized="1"
     inkscape:current-layer="svg9" />
  <defs
     id="defs2" />
  <g
     id="Page-1"
     transform="matrix(0.67614614,0,0,0.66760393,0.32374636,7.6450029)"
     style="fill:none;fill-rule:evenodd;stroke:none;stroke-width:1">
    <g
       id="Artboard-4"
       transform="translate(-400,-247)">
      <g
         id="69"
         transform="translate(400,247)">
        <circle
           id="Oval-7"
           cx="12"
           cy="12"
           r="10"
           style="stroke:#333333;stroke-width:2" />
        <path
           d="m 12.016,14.544 c 0.368,0 0.624,-0.288 0.688,-0.64 l 0.064,-0.736 C 14.544,12.864 16,11.952 16,9.936 V 9.904 c 0,-2 -1.52,-3.248 -3.76,-3.248 -1.472,0 -2.544,0.528 -3.392,1.328 -0.224,0.192 -0.32,0.448 -0.32,0.688 0,0.48 0.4,0.88 0.896,0.88 0.224,0 0.432,-0.096 0.592,-0.224 0.64,-0.576 1.328,-0.88 2.176,-0.88 1.152,0 1.84,0.624 1.84,1.52 V 10 c 0,1.008 -0.832,1.584 -2.336,1.728 -0.432,0.048 -0.688,0.368 -0.624,0.8 l 0.16,1.376 c 0.048,0.368 0.32,0.64 0.688,0.64 z m -1.232,2.272 v 0.16 c 0,0.624 0.48,1.104 1.136,1.104 0.656,0 1.136,-0.48 1.136,-1.104 v -0.16 c 0,-0.624 -0.48,-1.104 -1.136,-1.104 -0.656,0 -1.136,0.48 -1.136,1.104 z"
           id="?"
           inkscape:connector-curvature="0"
           style="fill:#333333" />
      </g>
    </g>
  </g>
  <path
     style="fill:#ffffff;stroke-width:0.02099567"
     d="M 8.1795097,17.294629 C 8.0713696,17.241775 7.9807815,17.127329 7.9476118,17.001649 7.9190785,16.893546 7.817311,16.039765 7.817311,15.908513 c 0,-0.115002 0.038763,-0.209122 0.1180978,-0.286732 0.094997,-0.09294 0.161033,-0.116988 0.4156189,-0.15138 0.9014522,-0.12178 1.3704488,-0.441981 1.4560908,-0.994128 0.069857,-0.450384 -0.142086,-0.864592 -0.5365084,-1.048516 -0.2478515,-0.115576 -0.3898645,-0.144066 -0.7137642,-0.143194 -0.536812,0.0014 -0.9143457,0.139869 -1.3785403,0.505447 -0.2342228,0.184463 -0.3255409,0.220307 -0.5281969,0.207328 -0.180152,-0.01154 -0.2623685,-0.04872 -0.3864245,-0.174749 -0.224464,-0.228038 -0.208822,-0.587728 0.035834,-0.824008 0.4334889,-0.418648 0.9992373,-0.714103 1.600146,-0.835655 0.2666937,-0.05395 0.8258855,-0.07392 1.1210314,-0.04004 1.1270764,0.129375 1.8666444,0.73584 2.0748494,1.701432 0.04217,0.195571 0.03578,0.737064 -0.01108,0.938818 -0.0886,0.381493 -0.243695,0.664642 -0.509749,0.930634 -0.305754,0.305683 -0.7304149,0.521732 -1.3053433,0.664105 l -0.3216339,0.07965 -0.02499,0.271663 c -0.034003,0.369645 -0.1094931,0.516544 -0.3074112,0.598195 -0.1162768,0.04797 -0.3240295,0.04189 -0.435833,-0.01275 z"
     id="path37"
     inkscape:connector-curvature="0" />
  <path
     style="fill:#ffffff;stroke-width:0.02099567"
     d="M 8.0903152,19.649459 C 7.761099,19.512407 7.6130514,19.262685 7.6313384,18.875273 c 0.014916,-0.316024 0.1393111,-0.51986 0.3922094,-0.642689 0.1331379,-0.06466 0.1552303,-0.06884 0.3639323,-0.06878 0.1834864,5e-5 0.2395518,0.008 0.3218631,0.04546 0.1492836,0.068 0.2971845,0.215818 0.3670534,0.366838 0.053963,0.116635 0.060177,0.152681 0.060177,0.349122 0,0.19644 -0.00622,0.232485 -0.060177,0.349121 -0.070211,0.15176 -0.2188537,0.299866 -0.3670534,0.365731 -0.073213,0.03254 -0.1529612,0.04618 -0.3004043,0.05138 -0.1732868,0.0061 -0.2168495,3.7e-4 -0.3186237,-0.042 z"
     id="path39"
     inkscape:connector-curvature="0" />
  <path
     style="fill:#ffffff;stroke-width:0.02099567"
     d="M 8.0074771,22.980507 C 6.957237,22.905288 6.0705051,22.671963 5.1655506,22.232714 3.8499561,21.594146 2.7969315,20.633985 2.0452388,19.387574 1.5136634,18.506148 1.1918788,17.558697 1.05211,16.463439 1.0097727,16.131674 1.0161848,15.107455 1.0627547,14.763135 1.1786989,13.905887 1.4004219,13.177463 1.77399,12.426521 2.9318382,10.099028 5.231148,8.5550595 7.8502333,8.3463711 8.2364757,8.3155952 8.9959521,8.3315923 9.357933,8.378127 c 1.66571,0.2141396 3.154162,0.9347872 4.333058,2.097888 2.288949,2.258285 2.828962,5.724997 1.334015,8.563957 -1.136287,2.157852 -3.281202,3.616185 -5.7391901,3.902092 -0.26967,0.03136 -1.049633,0.05482 -1.2783388,0.03844 z M 9.1167794,21.636963 C 10.410302,21.498352 11.664412,20.923146 12.623173,20.028731 14.848999,17.952291 15.1666,14.55906 13.36402,12.113581 12.386287,10.787136 10.948812,9.9416446 9.2435568,9.6900146 8.8875449,9.6374809 7.9781547,9.6376117 7.6165802,9.6902486 5.9620059,9.9311161 4.5488892,10.753748 3.5583932,12.052681 c -1.1309845,1.48317 -1.4963792,3.4193 -0.9879393,5.234831 0.2627934,0.93838 0.7828216,1.828533 1.4850901,2.542088 0.3437327,0.349257 0.6239196,0.58065 1.0161554,0.839193 0.8497278,0.560102 1.8511799,0.902984 2.8876463,0.988687 0.2674672,0.02212 0.8571261,0.01166 1.1574337,-0.02052 z"
     id="path41"
     inkscape:connector-curvature="0" />
</svg>

<svg width="24px" height="24px" viewBox="0 0 24 24" version="1.1" xmlns="http://www.w3.org/2000/svg" xmlns:xlink="http://www.w3.org/1999/xlink">
  <g stroke="none" stroke-width="1" fill="none" fill-rule="evenodd">
    <g transform="translate(-400.000000, -247.000000)">
      <g id="69" transform="translate(400.000000, 247.000000)">
        <circle id="Oval-7" stroke="<?php echo $variablesTheme["texte"]; ?>" stroke-width="2" cx="12" cy="12" r="10"></circle>
        <path d="M12.016,14.544 C12.384,14.544 12.64,14.256 12.704,13.904 L12.768,13.168 C14.544,12.864 16,11.952 16,9.936 L16,9.904 C16,7.904 14.48,6.656 12.24,6.656 C10.768,6.656 9.696,7.184 8.848,7.984 C8.624,8.176 8.528,8.432 8.528,8.672 C8.528,9.152 8.928,9.552 9.424,9.552 C9.648,9.552 9.856,9.456 10.016,9.328 C10.656,8.752 11.344,8.448 12.192,8.448 C13.344,8.448 14.032,9.072 14.032,9.968 L14.032,10 C14.032,11.008 13.2,11.584 11.696,11.728 C11.264,11.776 11.008,12.096 11.072,12.528 L11.232,13.904 C11.28,14.272 11.552,14.544 11.92,14.544 L12.016,14.544 Z M10.784,16.816 L10.784,16.976 C10.784,17.6 11.264,18.08 11.92,18.08 C12.576,18.08 13.056,17.6 13.056,16.976 L13.056,16.816 C13.056,16.192 12.576,15.712 11.92,15.712 C11.264,15.712 10.784,16.192 10.784,16.816 Z" id="?" fill="<?php echo $variablesTheme["texte"]; ?>"></path>
      </g>
    </g>
  </g>
</svg>
